X:304
T:Danza de Santana (Arrg.)
R:Danza
C:Tradicional
S:Msica Tradicional Asturiana, (C) Tello & Tito. Asturies, 2001.
S:http://pagina.de/MusTradAst <telloytito@asturies.org>
A:Asturies
G:Arrg.
Z:Curdin
M:4/4
L:1/8
Q:1/4=150
K:Dm
|:"Dm"DD "Dm"DF "Dm"AG "Dm"F2|"C"E8|"Dm"DD "Dm"DE "Dm"FE "Dm"FE|"C"GG "C"GA "Dm"FF "C"E2|
[1 "Dm"D8:|[2 "Dm"DF "C"ED "C"CD "C"EE||"C"G2 "C"GA "Dm"FF "C"E2|
|:"Dm"DF "C"ED "C"CD "C"EE|"C"G2 "C"GA "Dm"FF "C"E2:|"Dm"D8|
